X: 1840
T: Sûzinâk Aranağme (Aksak)
C: ?
O: Turkey
F: http://compmusic.upf.edu/node/140
N: suzinak--aranagme--aksak--1--
N: makam= suzinak
N: form= aranagme
N: usul= aksak = 9/8
M: 9/8
L: 1/16
K: C _1/4B _7/8e ^f 
Q: 1/4=156
%%MIDI tuningsystem comma53
g3f f3e e3d gfed c2 | de degf eddc cBcd efg2  | 
w:  ARANAĞME  |   | 
g3f f3e e3d gfed c2 | Bc dedc cBB_7/8A AGG4z2  | 
w:   |   | 
g3f f3e e3d gfed c2 | de degf eddc cBcd efg2  | 
w:  ARANAĞME  |   | 
g3f f3e e3d gfed c2 | Bc dedc cBB_7/8A AGG4z2  | 
w:   |   | 
|


